X:9
T:Antony's Polka
M:2/4
C:© Paul Gitlitz 2006
R:Polka
B:Anna's Smile
N:The other half of a set with Cleopatra Polka.
K:Em
L:1/8
"G"GB dB|"D"AD FA|"G"GB dB|"D"A4|!
"Em"B/c/B/A/  GB|"D"AD FA|"G"GB "D"FA|"Em"E4:|!
|:"Em"B>c B/A/G|"D"A>B A/G/F|"Em"G>A  G/F/E|"D"F4|!
"Em"E>D E/F/G/A/|"Bm"BA Bd|1"D"FA GF|"Em"E4:|2"D"DF "Bm"B/A/G/F/| "Em"E4|]
